X: 10711
T: When First This Humble Roof I Knew
Q: "Andantino"
%R: jig
B: "Edinburgh Repository of Music" v.1 p.71 #1
F: http://digital.nls.uk/special-collections-of-printed-music/pageturner.cfm?id=87776133
Z: 2015 John Chambers <jc:trillian.mit.edu>
M: 6/8
L: 1/8
K: G
d |\
d2d (dg)d | e2e (eg)e | (dB)d (cBA) | B2 z2B |\
A2A d2A | B2B d2B | g2f (ed^c) | d2z z2 :|
|: d |\
(d>e)d =fed | (c>d)c edc | Bcd He2G | (G3 HF2)d |\
d2d dgd | e2e ege | dBd cBA | g6- |\
g2g (d/c/B) A | G2z z2 :|

%%sep 2 1 500
%%sep 1 1 500

